icons/medicine-bottle-filled.svg

<svg width="24" height="24" viewBox="0 0 24 24" fill="none" xmlns="http://www.w3.org/2000/svg">
<path fill-rule="evenodd" clip-rule="evenodd" d="M3 7.99438H21V19.9831C21 21.2902 20.3333 21.9563 19 21.9813C17.6667 22.0062 13 22.0062 5 21.9813C3.66667 21.9813 3 21.3152 3 19.9831C3 18.6511 3 14.6548 3 7.99438ZM4.03754 2C13.4332 2 18.7541 2 20 2C21.3333 2 22 2.66604 22 3.99813V6H2V3.99813C2 2.66604 2.67918 2 4.03754 2ZM11 12V13.9965L8.99618 14C8.33179 14 7.9996 14.3333 7.9996 15C7.9996 15.6667 8.33179 16 8.99618 16H11V18C11 18.6667 11.3333 19 12 19C12.6667 19 13 18.6667 13 18V16H15.0021C15.6671 16 15.9996 15.6667 15.9996 15C15.9996 14.3333 15.6671 13.9988 15.0021 13.9965L13 14V12C13 11.3333 12.6667 11 12 11C11.3333 11 11 11.3333 11 12Z" fill="#3A3A47"/>
</svg>

<svg xmlns="http://www.w3.org/2000/svg" width="24" height="24" viewBox="0 0 24 24">
    <path fill="#3A3A47" fill-rule="evenodd" d="M21 7.994v11.99c0 1.306-.667 1.972-2 1.997-1.333.025-6 .025-14 0-1.333 0-2-.666-2-1.998V7.994h18zM12 11c-.667 0-1 .333-1 1v1.996L8.996 14C8.332 14 8 14.333 8 15s.332 1 .996 1H11v2c0 .667.333 1 1 1s1-.333 1-1v-2h2.002c.665 0 .998-.333.998-1s-.333-1.001-.998-1.004L13 14v-2c0-.667-.333-1-1-1zm8-9c1.333 0 2 .666 2 1.998V6H2V3.998C2 2.666 2.68 2 4.038 2H20z"/>
</svg>
